brandFactory_export/3.Masa/Documento_Archivo MP3_3Masa.svg

<?xml version="1.0" encoding="UTF-8"?>
<svg width="24px" height="24px" viewBox="0 0 24 24" version="1.1" xmlns="http://www.w3.org/2000/svg" xmlns:xlink="http://www.w3.org/1999/xlink">
    <title>3.Masa/Documento_Archivo MP3_3Masa</title>
    <g id="Symbols" stroke="none" stroke-width="1" fill="none" fill-rule="evenodd">
        <g id="3.Masa/Documento_Archivo-MP3_3Masa" fill="#5CB615" fill-rule="nonzero">
            <path d="M16.2117647,-2.66453526e-13 C16.487395,-2.66453526e-13 16.7596639,0.11092437 16.9546218,0.302521008 L23.3042017,6.45042017 C23.4386555,6.57815126 23.5159664,6.7394958 23.5663866,6.91092437 C23.6033613,6.99831933 23.6235294,7.09579832 23.6235294,7.19663866 L23.6235294,21.9630252 C23.6235294,22.8638655 22.8504202,23.6235294 21.9327731,23.6235294 L7.31428571,23.6235294 C6.41344538,23.6235294 5.62352941,22.8470588 5.62352941,21.9630252 L5.66386555,18.6352941 L2.90756303,18.6352941 C1.30084034,18.6352941 2.19149143e-10,17.3344538 2.19149143e-10,15.7277311 L2.19149143e-10,10.8134454 C2.19149143e-10,9.20672269 1.30084034,7.90588235 2.90420168,7.90252101 L5.62352941,7.90252101 L5.62352941,1.6605042 C5.62352941,0.789915966 6.4302521,-2.66453526e-13 7.31428571,-2.66453526e-13 L16.2117647,-2.66453526e-13 Z M14.7193277,9.36134454 L2.90420168,9.36134454 C2.10420168,9.36134454 1.45546219,10.0134454 1.45546219,10.8134454 L1.45546219,15.7277311 C1.45546219,16.5277311 2.10420168,17.1798319 2.90420168,17.1798319 L14.7193277,17.1798319 C15.5193277,17.1798319 16.1680672,16.5277311 16.1680672,15.7277311 L16.1680672,10.8134454 C16.1680672,10.0134454 15.5193277,9.36134454 14.7193277,9.36134454 Z M13.2705882,11.0554622 C13.8285714,11.0554622 14.302521,11.1865546 14.5747899,11.4588235 C14.7630252,11.6470588 14.8806723,11.9058824 14.8806723,12.2756303 C14.8806723,12.7361345 14.6789916,13.0588235 14.292437,13.2537815 C14.7596639,13.4218487 15.0386555,13.7714286 15.0386555,14.3495798 C15.0386555,14.692437 14.9344538,14.9915966 14.7260504,15.2067227 C14.4336134,15.512605 13.9596639,15.6672269 13.287395,15.6672269 C12.9008403,15.6638655 12.5109244,15.6235294 12.2151261,15.5596639 L12.2151261,14.8605042 C12.4739496,14.907563 12.7798319,14.9378151 13.102521,14.9378151 C13.4655462,14.9378151 13.6806723,14.8907563 13.8352941,14.789916 C13.989916,14.6857143 14.0739496,14.5176471 14.0739496,14.2789916 C14.0739496,14.0470588 13.989916,13.8890756 13.8521008,13.7915966 C13.6907563,13.6739496 13.4420168,13.6369748 12.9882353,13.6369748 L12.8638655,13.6369748 L12.8638655,12.9882353 L13.0184874,12.9882353 C13.4252101,12.9882353 13.6336134,12.9378151 13.7915966,12.8 C13.8957983,12.7092437 13.9663866,12.5613445 13.9663866,12.3462185 C13.9663866,12.1781513 13.9193277,12.0336134 13.8184874,11.9428571 C13.687395,11.8252101 13.4689076,11.7747899 13.1193277,11.7747899 C12.8336134,11.7747899 12.5109244,11.8016807 12.2521008,11.8386555 L12.2521008,11.1529412 C12.5512605,11.0890756 12.9277311,11.0554622 13.2705882,11.0554622 Z M3.51932773,11.1394958 L4.9210084,13.6168067 L6.36638655,11.1394958 L7.14285714,11.1394958 L7.14285714,15.5731092 L6.2184874,15.5731092 L6.2184874,13.0184874 L5.29747899,14.5613445 L4.5210084,14.5613445 L3.57310924,12.9915966 L3.57310924,15.5731092 L2.72268908,15.5731092 L2.72268908,11.1394958 L3.51932773,11.1394958 Z M9.6302521,11.1394958 C10.3226891,11.1394958 10.7630252,11.2369748 11.0487395,11.502521 C11.287395,11.7243697 11.405042,12.0672269 11.405042,12.5411765 C11.405042,13.0151261 11.2941176,13.3714286 11.0756303,13.6168067 C10.8168067,13.9092437 10.4134454,14.0436975 9.83193277,14.0436975 L9.11932773,14.0436975 L9.11932773,15.5731092 L8.10756303,15.5731092 L8.10756303,11.1394958 L9.6302521,11.1394958 Z M9.59327731,11.8722689 L9.11932773,11.8722689 L9.11932773,13.287395 L9.62016807,13.287395 L9.62016807,13.2840336 C9.94285714,13.2840336 10.0806723,13.2369748 10.2084034,13.1159664 C10.3260504,12.9983193 10.3831933,12.810084 10.3831933,12.5512605 C10.3831933,12.312605 10.3327731,12.1378151 10.2151261,12.0268908 C10.0907563,11.9159664 9.90252101,11.8722689 9.59327731,11.8722689 Z M16.6151261,2.00336134 L16.6151261,4.1210084 C16.6151261,4.90756303 16.8739496,5.57647059 17.3647059,6.05042017 C17.8621849,6.53109244 18.5613445,6.78319328 19.3915966,6.78319328 L21.5563025,6.78319328 L16.6151261,2.00336134 Z" id="Documento_Archivo-MP3_3Masa"></path>
        </g>
    </g>
</svg>

<svg width="24" height="24" viewBox="0 0 24 24" xmlns="http://www.w3.org/2000/svg"><path d="M16.212 0c.275 0 .548.11.743.303l6.35 6.147c.134.128.211.29.261.46a.735.735 0 01.058.287v14.766c0 .9-.774 1.66-1.691 1.66H7.314c-.9 0-1.69-.776-1.69-1.66l.04-3.328H2.908A2.906 2.906 0 010 15.728v-4.915a2.91 2.91 0 012.904-2.91h2.72V1.66C5.624.79 6.43 0 7.314 0h8.898zm-1.493 9.361H2.904c-.8 0-1.449.652-1.449 1.452v4.915c0 .8.65 1.452 1.45 1.452h11.814c.8 0 1.45-.652 1.45-1.452v-4.915c0-.8-.65-1.452-1.45-1.452zm-1.448 1.694c.558 0 1.032.132 1.304.404.188.188.306.447.306.817 0 .46-.202.783-.589.978.468.168.747.517.747 1.096 0 .342-.105.642-.313.857-.292.306-.766.46-1.439.46a5.583 5.583 0 01-1.072-.107v-.7c.259.048.565.078.888.078.363 0 .578-.047.732-.148.155-.104.239-.272.239-.511 0-.232-.084-.39-.222-.487-.161-.118-.41-.155-.864-.155h-.124v-.649h.154c.407 0 .616-.05.774-.188.104-.09.174-.239.174-.454 0-.168-.047-.312-.148-.403-.13-.118-.35-.168-.699-.168-.285 0-.608.027-.867.064v-.686a5.16 5.16 0 011.019-.098zm-9.752.084l1.402 2.478 1.445-2.478h.777v4.434h-.925v-2.555l-.92 1.543H4.52l-.948-1.57v2.582h-.85V11.14h.796zm6.111 0c.693 0 1.133.098 1.419.364.238.221.356.564.356 1.038 0 .474-.11.83-.33 1.076-.258.292-.662.427-1.243.427h-.713v1.53H8.108v-4.435H9.63zm-.037.733H9.12v1.415h.501v-.003c.323 0 .46-.047.588-.168.118-.118.175-.306.175-.565 0-.238-.05-.413-.168-.524-.124-.111-.312-.155-.622-.155zm7.022-9.869v2.118c0 .787.259 1.455.75 1.93.497.48 1.196.732 2.027.732h2.164l-4.94-4.78z" fill="#5CB615" fill-rule="nonzero"/></svg>
